img/plus.svg

<svg viewBox="0 0 12 12" xmlns="http://www.w3.org/2000/svg" fill-rule="evenodd" clip-rule="evenodd" stroke-linejoin="round" stroke-miterlimit="2"><path d="M6 3c.206 0 .375.169.375.375v2.25h2.25c.206 0 .375.169.375.375a.376.376 0 01-.375.375h-2.25v2.25A.376.376 0 016 9a.376.376 0 01-.375-.375v-2.25h-2.25A.376.376 0 013 6c0-.206.169-.375.375-.375h2.25v-2.25C5.625 3.169 5.794 3 6 3z"/></svg>

<?xml version="1.0" encoding="UTF-8" standalone="no"?>
<!DOCTYPE svg PUBLIC "-//W3C//DTD SVG 1.1//EN" "http://www.w3.org/Graphics/SVG/1.1/DTD/svg11.dtd">
<svg width="100%" height="100%" viewBox="0 0 12 12" version="1.1" xmlns="http://www.w3.org/2000/svg" xmlns:xlink="http://www.w3.org/1999/xlink" xml:space="preserve" xmlns:serif="http://www.serif.com/" style="fill-rule:evenodd;clip-rule:evenodd;stroke-linejoin:round;stroke-miterlimit:2;">
    <path d="M6,3C6.206,3 6.375,3.169 6.375,3.375L6.375,5.625L8.625,5.625C8.831,5.625 9,5.794 9,6C9,6.206 8.831,6.375 8.625,6.375L6.375,6.375L6.375,8.625C6.375,8.831 6.206,9 6,9C5.794,9 5.625,8.831 5.625,8.625L5.625,6.375L3.375,6.375C3.169,6.375 3,6.206 3,6C3,5.794 3.169,5.625 3.375,5.625L5.625,5.625L5.625,3.375C5.625,3.169 5.794,3 6,3Z"/>
</svg>
